www/assets/icons/stop_screen_share.svg

<svg xmlns="http://www.w3.org/2000/svg" width="24" height="24" viewBox="0 0 24 24" fill='currentColor'><path d="m21.22 17.79 2 2H24v-2zm.77-2 .01-10a2 2 0 0 0-2-2H7.22l5.23 5.23c.18-.04.36-.07.55-.1V6.79l4 3.73-1.58 1.47 5.54 5.54c.61-.33 1.03-.99 1.03-1.74M2.39 1.5 1.11 2.77l1.54 1.54c-.4.36-.65.89-.65 1.48v10a2 2 0 0 0 2 2H0v2h18.13l2.71 2.71 1.27-1.27zM7 14.79c.31-1.48.92-2.95 2.07-4.06l1.59 1.59c-1.54.38-2.7 1.18-3.66 2.47"/></svg>

<svg width="24" height="24" viewBox="0 0 24 24" xmlns="http://www.w3.org/2000/svg" fill='currentColor'><path d="M21.22 17.79L23.22 19.79H24V17.79H21.22ZM21.99 15.79L22 5.79C22 4.68 21.1 3.79 20 3.79H7.22L12.45 9.02C12.63 8.98 12.81 8.95 13 8.92V6.79L17 10.52L15.42 11.99L20.96 17.53C21.57 17.2 21.99 16.54 21.99 15.79ZM2.39 1.5L1.11 2.77L2.65 4.31C2.25 4.67 2 5.2 2 5.79V15.79C2 16.89 2.89 17.79 4 17.79H0V19.79H18.13L20.84 22.5L22.11 21.23L2.39 1.5ZM7 14.79C7.31 13.31 7.92 11.84 9.07 10.73L10.66 12.32C9.12 12.7 7.96 13.5 7 14.79Z"/></svg>
